X: 4887
T: Braes Of Tulliemet, The
R: strathspey
M: 4/4
K: Edorian
|:d c>d|B>E (3EEE B>AB<d|F<DA>D B>DA>D|B<EE>A B>^AB>e|d<BA>F E:|
g f>g|e>Be<g e>B (3efg|d>Ad<f d>A (3def|e>Be<g e>Be<g|d<BA>F E>gf>g|
e>Be<g e2 (3efg|d>Ad<f d2 (3def|g2 (3fed e2 (3edc|d<BA<F E||

